X: 355
T: I'll make you fain to follow me
%R: jig
Z: 2014 John Chambers <jc:trillian.mit.edu>
B: Preston "Twenty four Country Dances for the Year 1799" p.158 #1
F: http://www.vwml.org/browse/browse-collections-dance-tune-books/browse-prestons1799# 2014-8-10
M: 6/8
L: 1/8
K: C
C |\
EGA c2e | dDD D2C | EGA cdc | BAB cGE |\
F2d E2c | dDD D2D | EGA c2G | ECC C2 :|
|: g |\
ega gec | fge d2c | ega gec | gea gec |\
ega gec | fge d2D | EGA c2G | ECC C2 :|
% - - - - - - - - - - - - - - - - - - - - - - - - -
%%begintext align
%% Hey contrary Sides .| Hey on your own Sides :|
%% lead down the middle up again :|. Right & Left :|:
%%endtext
% - - - - - - - - - - - - - - - - - - - - - - - - -

%%sep 1 1 500
%%sep 1 1 500
